X: 1978
T: Artie McShane
R: jig
M: 6/8
K: Dmixolydian
|:AGA d^cd|cAG EFG|AGA d^cd|cAG FDD|
AGA d^cd|cAG EFG|AGA c2A|GEC D3:|
K: Dmaj
|:AGA dcd|fed Bcd|AGA dcd|fed fga|
AGA dcd|fed Bcd|fef gfg|aec d3:|

